X: 40644
T: Top It Off
R: slip jig
M: 9/8
K: Dmajor
|:G|E2 G G2 ^F G2 G|A2 d d2 c BAG|E2 G G2 ^F G2 G|ABc d2 B c2:|
|:=f|e2 c c2 B c2 e|d2 _B B2 A B2 d|c2 A A2 ^G A2 c|1 B2 G G2 B d2:|2 ABc d2 B c2||

